!!!!SEGMENT: pl-gd--ee-1638--003-015_marenzio-luca--madrigali-a-quatro-voci-ahi-dispietata-morte.krn
!!!cenid: 15xx:989
!!!COM: Marenzio, Luca
!!!COM-rismID: pe30003955
!!!CDT: ~1553-1599/08/22
!!!CNT: Italian
!!!GTL: Madrigali a quatro voci
!!!OTL: Ahi dispietata morte
!!!OMV: 015
!!!PDT: 1587
!!!AGN:
!!!SMS-siglum: PL-GD
!!!SMS-shelfmark: Ee 1638
!!!SMS-shelfwork: 003-015 G
!!!SMS-variant:
!!!SMS-altvar:
!!!NIFC-rismSourceID: 990039322
!!!NIFC-islandoraID: pl-gd:57883
!!!URL-pdf-islandora: https://repozytorium.nifc.pl/islandora/object/pl-gd%3A57883/datastream/PDF/view
!!!URL-scan: https://polish.musicsources.pl/pl/lokalizacje/galeria/klocki-introligatorskie/655 @EN{Scan on Polish Music Sources Website} @PL{Skany w portalu Dziedzictwo Muzyki Polskiej w otwartym dostępie}
!!!ONB-nifc: UWAGA: zbiór na stronach: Canto: s. 637-653, Alto: s. do 486-501, Tenore: s. do 334-349, Bassus: s. do 182-197. Uwaga: utwory podzielone wg tytułów w spisach treści dostępnych na końcu każdej księgi głosowej.
!!!AIN: 1 alto 1 bass 1 soprn 1 tenor
!!!key:
**kern	**text	**kern	**text	**kern	**text	**kern	**text
*part4	*part4	*part3	*part3	*part2	*part2	*part1	*part1
*staff4	*staff4	*staff3	*staff3	*staff2	*staff2	*staff1	*staff1
*I"BASSO	*	*I"TENORE	*	*I"ALTO	*	*I"CANTO	*
*I'B	*	*I'T	*	*I'A	*	*I'S	*
*ICvox	*	*ICvox	*	*ICvox	*	*ICvox	*
*Ibass	*	*Itenor	*	*Ialto	*	*Isoprn	*
*clefF4	*	*clefC4	*	*clefC3	*	*clefC1	*
*k[]	*	*k[]	*	*k[]	*	*k[]	*
*a:	*	*a:	*	*a:	*	*a:	*
*M2/2	*	*M2/2	*	*M2/2	*	*M2/2	*
*met(C|)	*	*met(C|)	*	*met(C|)	*	*met(C|)	*
=1-	=1-	=1-	=1-	=1-	=1-	=1-	=1-
1r	.	1r	.	1r	.	0e	AHi
=2-	=2-	=2-	=2-	=2-	=2-	=2-	=2-
0E	AHi	0G#X	AHi	0B	AHi	.	.
=3-	=3-	=3-	=3-	=3-	=3-	=3-	=3-
.	.	.	.	.	.	2r	.
.	.	.	.	.	.	1ee\	diſ-
=4-	=4-	=4-	=4-	=4-	=4-	=4-	=4-
1r	.	1.A	diſ-	1.c	diſ-	.	.
.	.	.	.	.	.	2dd\	-pi-
=5-	=5-	=5-	=5-	=5-	=5-	=5-	=5-
1.A	diſ-	.	.	.	.	1.cc	-ta-
.	.	2B\	-pi-	2d\	-pi-	.	.
=6-	=6-	=6-	=6-	=6-	=6-	=6-	=6-
.	.	1c	-ta-	1e	-ta-	.	.
2G\	-pie-	.	.	.	.	2b\	-ta
=7-	=7-	=7-	=7-	=7-	=7-	=7-	=7-
2F\	-ta-	2d\	-ta	2A/	-ta	0a	mor-
2E\	-ta	1e\	mor-	1c\	mor-	.	.
=8-	=8-	=8-	=8-	=8-	=8-	=8-	=8-
1F	mor-	.	.	.	.	.	.
.	.	2d\	.	4B/	.	.	.
.	.	.	.	4A/	.	.	.
=9-	=9-	=9-	=9-	=9-	=9-	=9-	=9-
1E	-te	1e	-te	1B	-te	1g#X	-te
=10-	=10-	=10-	=10-	=10-	=10-	=10-	=10-
2r	.	1r	.	2r	.	1r	.
1C/	ahi	.	.	1e\	ahi	.	.
=11-	=11-	=11-	=11-	=11-	=11-	=11-	=11-
.	.	1.c	ahi	.	.	1.ee	ahi
4BB/	cru-	.	.	2f#X\	'cru-	.	.
4AA/	-del	.	.	.	.	.	.
=12-	=12-	=12-	=12-	=12-	=12-	=12-	=12-
0E	vi-	.	.	2g#X\	-del	.	.
.	.	4B\	cru-	1a\	vi-	4dd\	cru-
.	.	4A/	-del	.	.	4cc\	-del
=13-	=13-	=13-	=13-	=13-	=13-	=13-	=13-
.	.	1B	vi-	.	.	1b	vi-
.	.	.	.	2g#X\	.	.	.
=14-	=14-	=14-	=14-	=14-	=14-	=14-	=14-
2AA/	ta	2A/	ta	2.a\	ta	2.cc\	-ta
2.A\	L'uno	2.c\	L'una	.	.	.	.
.	.	.	.	8gny\	.	4b\	.
.	.	.	.	8fny\	.	.	.
=15-	=15-	=15-	=15-	=15-	=15-	=15-	=15-
.	.	.	.	1e	.	1a	.
4A\	m'ha	4c\	m'ha	.	.	.	.
!LO:SIC:v:t=custos G	!	!	!	!	!	!	!
2A\	poſ-	2c\	poſ-	.	.	.	.
!LO:LB:g=original	!	!	!	!	!	!	!
=16-	=16-	=16-	=16-	=16-	=16-	=16-	=16-
!	!	!	!	!	!	!LO:SIC:v:t=custos dd	!
2G\	-to	2B\	-t'(o)	1r	.	1r	.
2E\	in	2c\	in	.	.	.	.
!	!	!	!	!	!	!LO:LB:g=original	!
=17-	=17-	=17-	=17-	=17-	=17-	=17-	=17-
1F#X	dog-	1A	dog-	2r	.	2r	.
.	.	.	.	2.d\	L'una	2.dd\	L'una
=18-	=18-	=18-	=18-	=18-	=18-	=18-	=18-
!	!	!LO:SIC:v:t=custos d	!	!	!	!	!
1G	-lia	1B	-lia	.	.	.	.
.	.	.	.	4d\	m'ha	4dd\	m'ha
!	!	!	!	!LO:SIC:v:t=custos e	!	!	!
.	.	.	.	2d\	poſ-	2dd\	poſ-
!	!	!LO:LB:g=original	!	!LO:LB:g=original	!	!	!
=19-	=19-	=19-	=19-	=19-	=19-	=19-	=19-
1r	.	1r	.	2e\	-t'(o)	2cc\	-to
.	.	.	.	2f\	in	2a\	in
=20-	=20-	=20-	=20-	=20-	=20-	=20-	=20-
2r	.	2r	.	1d	do-	1b	do-
2G\	&	2d\	Et	.	.	.	.
=21-	=21-	=21-	=21-	=21-	=21-	=21-	=21-
2.A\	mie	2f\	mie	1c	-glia	1cc	-glia
.	.	2e\	ſpe-	.	.	.	.
4G\	ſpe-	.	.	.	.	.	.
=22-	=22-	=22-	=22-	=22-	=22-	=22-	=22-
2Fny\	-ra-	2d\	-rã-	1r	.	1r	.
2E\	-ze	2c\	-ze	.	.	.	.
=23-	=23-	=23-	=23-	=23-	=23-	=23-	=23-
2.F\	acer-	2.d\	acer-	2r	.	00r	.
.	.	.	.	2A/	ha	.	.
4E\	-ba-	4c\	-ba-	.	.	.	.
=24-	=24-	=24-	=24-	=24-	=24-	=24-	=24-
2D/	-men-	2B\	-me-	0d	ſpen-	.	.
2C/	-te	4A/	-te	.	.	.	.
.	.	2A/	ha	.	.	.	.
=25-	=25-	=25-	=25-	=25-	=25-	=25-	=25-
1BB	ha ſpen	.	.	.	.	.	.
.	.	8G#X/	ſpen-	.	.	.	.
.	.	8F#X/	.	.	.	.	.
.	.	2G#X/	.	.	.	.	.
=26-	=26-	=26-	=26-	=26-	=26-	=26-	=26-
2AA/	-te	2A/	-te	2c#X/	-te	.	.
2r	.	2r	.	2r	.	.	.
=27-	=27-	=27-	=27-	=27-	=27-	=27-	=27-
0r	.	1r	.	2r	.	2.a\	L'al-
.	.	.	.	2.d\	L'al-	.	.
.	.	.	.	.	.	4a\	-tra
=28-	=28-	=28-	=28-	=28-	=28-	=28-	=28-
.	.	2r	.	.	.	2b\	mi
.	.	.	.	4d\	-tra	.	.
.	.	2.c\	L'al-	2e\	mi	2cc\	tien
=29-	=29-	=29-	=29-	=29-	=29-	=29-	=29-
2.F\	L'al-	.	.	1f	tien	1r	.
.	.	4c\	-tra	.	.	.	.
.	.	2d\	mi	.	.	.	.
4F\	-tra	.	.	.	.	.	.
=30-	=30-	=30-	=30-	=30-	=30-	=30-	=30-
2G\	mi	2.e\	tie(n)	2r	.	2r	.
!LO:SIC:v:t=custos AA	!	!	!	!	!	!	!
*	*	*	*ij	*	*ij	*	*
2A\	tien	.	.	2.e\	L'al-	2.cc\	L'al-
.	.	2A/	L'al-	.	.	.	.
!LO:LB:g=original	!	!	!	!	!	!	!
=31-	=31-	=31-	=31-	=31-	=31-	=31-	=31-
2AA/	quà	.	.	.	.	.	.
.	.	4A/	-tra	4e\	-tra	4cc\	-tra
2GG/	giù	2B\	mi	2g\	mi	2dd\	mi
=32-	=32-	=32-	=32-	=32-	=32-	=32-	=32-
1r	.	2c\	tien	1g	tien	2ee\	tien
*	*	*	*Xij	*	*	*	*
!	!	!LO:SIC:v:t=custos C	!	!	!	!	!
.	.	2E/	quà	.	.	2e/	quà
*	*	*	*	*	*Xij	*	*
!	!	!LO:LB:g=original	!	!	!	!	!
=33-	=33-	=33-	=33-	=33-	=33-	=33-	=33-
2r	.	1C	giù	1G	quà	1e	giù
1G\	con-	.	.	.	.	.	.
=34-	=34-	=34-	=34-	=34-	=34-	=34-	=34-
.	.	1C	con-	2E/	giù	1.c	cõ-
1F\	-tra	.	.	1A/	cõ-	.	.
=35-	=35-	=35-	=35-	=35-	=35-	=35-	=35-
.	.	1.C	-tra	.	.	.	.
2E\	mia	.	.	2G/	-tra	1gny\	-tra
=36-	=36-	=36-	=36-	=36-	=36-	=36-	=36-
1.A	vo-	.	.	1cny	mia	.	.
!	!	!	!	!	!	!LO:SIC:v:t=custos e	!
.	.	2D/	mia	.	.	2f/	mia
!	!	!	!	!	!	!LO:LB:g=original	!
=37-	=37-	=37-	=37-	=37-	=37-	=37-	=37-
!	!	!	!	!LO:SIC:v:t=custos c	!	!	!
.	.	1E	vog-	0c	vo-	0e	vo-
4G#X\	.	.	.	.	.	.	.
4F#X\	.	.	.	.	.	.	.
!	!	!	!	!LO:LB:g=original	!	!	!
=38-	=38-	=38-	=38-	=38-	=38-	=38-	=38-
1G#X	.	1E	-lia	.	.	.	.
=39-	=39-	=39-	=39-	=39-	=39-	=39-	=39-
2A\	-glia	2r	.	4c/	-glia	1e	-glia
.	.	.	.	4A/	Et	.	.
2AA/	Et	1A/	Et	2.c/	lei	.	.
=40-	=40-	=40-	=40-	=40-	=40-	=40-	=40-
2.C/	lei	.	.	.	.	2r	.
.	.	.	.	4d\	che	.	.
.	.	2.Gny/	lei	4e\	ſe	1g\	Et
4D/	che	.	.	4f\	n'è	.	.
=41-	=41-	=41-	=41-	=41-	=41-	=41-	=41-
4E\	ſe	.	.	2g\	gi-	.	.
4Fny\	n'è	4A/	che	.	.	.	.
2Gny\	gi-	4B\	ſe	2g\	-ta	4d/	lei
.	.	4c\	n'è	.	.	4e/	che
=42-	=42-	=42-	=42-	=42-	=42-	=42-	=42-
4D/	-ta	2d\	gi-	1r	.	4f/	ſe
4E\	Se-	.	.	.	.	4g/	n'è
4F\	-guir	4A/	-ta	.	.	2a\	gi-
!LO:SIC:v:t=custos A	!	!	!	!	!	!	!
4G\	non	4B\	Se-	.	.	.	.
!LO:LB:g=original	!	!	!	!	!	!	!
=43-	=43-	=43-	=43-	=43-	=43-	=43-	=43-
2A\	poſ-	4c\	-guir	2r	.	4e/	-ta
.	.	4d\	nõ	.	.	4f/	Se-
4E\	-ſo	2e\	poſ-	1B/	Et	4.g/	-guir
4E\	Et	.	.	.	.	.	.
.	.	.	.	.	.	8a\	nõ
=44-	=44-	=44-	=44-	=44-	=44-	=44-	=44-
4G\	lei	2d\	-ſo	.	.	1b	poſ-
4A\	che	.	.	.	.	.	.
4B\	ſe	2G/	Et	4d\	lei	.	.
4c\	n'è	.	.	4e\	che	.	.
=45-	=45-	=45-	=45-	=45-	=45-	=45-	=45-
2d\	gi-	4D/	lei	4f\	ſe	1a	-ſo
.	.	4E/	che	4g\	n'è	.	.
4D/	-ta	4Fny/	ſe	2a\	gi-	.	.
4E\	Se-	4G/	n'è	.	.	.	.
=46-	=46-	=46-	=46-	=46-	=46-	=46-	=46-
4F\	-guir	4A/	gi-	4a\	-ta	4r	.
!	!	!LO:SIC:v:t=custos c	!	!	!	!	!
4G\	nõ	4E/	-ta	4g\	Se-	4b\	Se-
!	!	!LO:LB:g=original	!	!	!	!	!
2A\	poſ-	4r	.	4e\	-guir	4cc\	-gu-
.	.	4c\	Se-	4f\	no	4a\	-ir
=47-	=47-	=47-	=47-	=47-	=47-	=47-	=47-
1G	-ſo	4d\	-guir	1g	poſ-	4b\	no
.	.	4e\	nõ	.	.	2cc\	poſ-
.	.	2d\	poſ-	.	.	.	.
.	.	.	.	.	.	4b\	.
=48-	=48-	=48-	=48-	=48-	=48-	=48-	=48-
2r	.	1c	-ſo	1e	-ſo	2cc\	-ſo
1C/	ch'el-	.	.	.	.	1g\	ch'el-
=49-	=49-	=49-	=49-	=49-	=49-	=49-	=49-
.	.	2.c\	ch'el-	2.e\	ch'el-	.	.
!	!	!	!	!	!	!LO:SIC:v:t=custos g	!
2AA/	la	.	.	.	.	2a\	-la
.	.	4c\	la	4f\	la	.	.
!	!	!	!	!	!	!LO:LB:g=original	!
=50-	=50-	=50-	=50-	=50-	=50-	=50-	=50-
2C/	no'l	2c\	no'l	2e\	no'l	2g/	no'l
!	!	!	!	!LO:SIC:v:t=custos d	!	!	!
2D/	con-	2A/	cõn-	2d\	cõ(n)-	2f#X/	con-
!	!	!	!	!LO:LB:g=original	!	!	!
=51-	=51-	=51-	=51-	=51-	=51-	=51-	=51-
1GG	ſen-	1B-X	ſen-	1d	ſen-	1g	ſen-
=52-	=52-	=52-	=52-	=52-	=52-	=52-	=52-
1AA	-te	1A	-te	0c#X	-te	0e	-te
=53-	=53-	=53-	=53-	=53-	=53-	=53-	=53-
1A	Ma	2r	.	.	.	.	.
.	.	1e\	Ma	.	.	.	.
=54-	=54-	=54-	=54-	=54-	=54-	=54-	=54-
2.G\	pur	.	.	1r	.	1r	.
.	.	2.d\	pur	.	.	.	.
!LO:SIC:v:t=custos G	!	!	!	!	!	!	!
4F#X\	ogn'	.	.	.	.	.	.
!LO:LB:g=original	!	!	!	!	!	!	!
=55-	=55-	=55-	=55-	=55-	=55-	=55-	=55-
2G\	hor	.	.	2r	.	1r	.
.	.	4Bny\	ogn'	.	.	.	.
2E\	pre-	4c\	hor	2e\	Nel	.	.
.	.	4B\	pre-	.	.	.	.
=56-	=56-	=56-	=56-	=56-	=56-	=56-	=56-
1Fny	-ſen-	1A	-se-	4.d\	me-	2r	.
.	.	.	.	8cny/	-zo	.	.
.	.	.	.	4d\	del	2a\	Nel
.	.	.	.	4d\	mio	.	.
=57-	=57-	=57-	=57-	=57-	=57-	=57-	=57-
1E	-te	2B\	-te	1e	cor	4.g/	me-
.	.	.	.	.	.	8fny/	-zo
.	.	4r	.	.	.	4g/	del
.	.	4e\	Nel	.	.	4g/	mio
=58-	=58-	=58-	=58-	=58-	=58-	=58-	=58-
1r	.	4.d\	me-	1r	.	1a	cor
.	.	8c\	-zo	.	.	.	.
.	.	4d\	del	.	.	.	.
!	!	!LO:SIC:v:t=custos e	!	!	!	!	!
.	.	4d\	mio	.	.	.	.
!	!	!LO:LB:g=original	!	!	!	!	!
=59-	=59-	=59-	=59-	=59-	=59-	=59-	=59-
2r	.	2e\	cor	2r	.	1g	ma-
1C/	ma-	1c\	ma-	1e\	ma-	.	.
=60-	=60-	=60-	=60-	=60-	=60-	=60-	=60-
.	.	.	.	.	.	1g	-don-
1G\	-don-	2B\	-don-	1d\	-don-	.	.
=61-	=61-	=61-	=61-	=61-	=61-	=61-	=61-
.	.	2B\	-na	.	.	1g	na
2G\	-na	1c\	ſie-	2e\	na	.	.
=62-	=62-	=62-	=62-	=62-	=62-	=62-	=62-
0F	ſie-	.	.	0f	ſie-	0dd	ſie-
.	.	4B\	.	.	.	.	.
.	.	4A\	.	.	.	.	.
=63-	=63-	=63-	=63-	=63-	=63-	=63-	=63-
.	.	1B	.	.	.	.	.
=64-	=64-	=64-	=64-	=64-	=64-	=64-	=64-
0.C	de	2c\	de	0.e	de	1g	de
.	.	2G/	&	.	.	.	.
=65-	=65-	=65-	=65-	=65-	=65-	=65-	=65-
.	.	2A/	qual	.	.	2r	.
.	.	2G/	è	.	.	2g/	&
=66-	=66-	=66-	=66-	=66-	=66-	=66-	=66-
.	.	2.c\	la	.	.	2a\	qual
.	.	.	.	.	.	2g/	è
.	.	4B\	mia	.	.	.	.
=67-	=67-	=67-	=67-	=67-	=67-	=67-	=67-
0r	.	2A/	vi-	2r	.	2.cc\	la
.	.	2G/	ta	4r	.	.	.
!	!	!	!	!	!	!LO:SIC:v:t=custos a	!
.	.	.	.	4d\	Et	4b\	mia
!	!	!	!	!	!	!LO:LB:g=original	!
=68-	=68-	=68-	=68-	=68-	=68-	=68-	=68-
.	.	1r	.	2f\	qual	2a\	vi-
.	.	.	.	2e\	è	4g/	-ta
.	.	.	.	.	.	4c/	&
=69-	=69-	=69-	=69-	=69-	=69-	=69-	=69-
1A	el-	1c	el-	2.a\	la	2f/	qual
.	.	.	.	.	.	2e/	e
.	.	.	.	4g\	mia	.	.
=70-	=70-	=70-	=70-	=70-	=70-	=70-	=70-
2A\	-la	2c\	-la	2f\	vi-	2.a\	la
!	!	!	!	!LO:SIC:v:t=custos d	!	!	!
2A\	ſe'l	2c\	ſe'l	2e\	-ta	.	.
.	.	.	.	.	.	4g/	mia
!	!	!	!	!LO:LB:g=original	!	!	!
=71-	=71-	=71-	=71-	=71-	=71-	=71-	=71-
0B-X	ve-	0d	ve-	1r	.	2.f/	vi-
.	.	.	.	.	.	8e/	.
.	.	.	.	.	.	8d/	.
=72-	=72-	=72-	=72-	=72-	=72-	=72-	=72-
.	.	.	.	2r	.	2f/	.
.	.	.	.	2d\	Et	2g/	.
=73-	=73-	=73-	=73-	=73-	=73-	=73-	=73-
2A\	-de	1c	-de	2f\	qual	0.a	-ta
2AA/	&	.	.	2e\	è	.	.
=74-	=74-	=74-	=74-	=74-	=74-	=74-	=74-
2D/	qual	1r	.	2.f\	la	.	.
2C/	è	.	.	.	.	.	.
.	.	.	.	4e\	mia	.	.
=75-	=75-	=75-	=75-	=75-	=75-	=75-	=75-
2.F\	la	1A	el-	2d\	vi-	.	.
.	.	.	.	4c/	-ta	.	.
4E\	mia	.	.	4c/	Et	.	.
=76-	=76-	=76-	=76-	=76-	=76-	=76-	=76-
2D/	vi-	2A/	-la	2f\	qual	1r	.
!	!	!LO:SIC:v:t=custos c	!	!	!	!	!
4C/	-ta	2c\	ſe'l	2e\	è	.	.
!LO:SIC:v:t=custos F	!	!	!	!	!	!	!
4E\	&	.	.	.	.	.	.
!LO:LB:g=original	!	!LO:LB:g=original	!	!	!	!	!
=77-	=77-	=77-	=77-	=77-	=77-	=77-	=77-
2F\	qual	1c	ve-	2.a\	-la	1r	.
2E\	è	.	.	.	.	.	.
.	.	.	.	4g\	mia	.	.
=78-	=78-	=78-	=78-	=78-	=78-	=78-	=78-
2.A\	la	1c	-de	2f\	vi-	2r	.
.	.	.	.	2e\	-ta	2cc\	&
4G\	mia	.	.	.	.	.	.
=79-	=79-	=79-	=79-	=79-	=79-	=79-	=79-
2F\	vi-	2r	.	1r	.	2a\	qual
2E\	-ta	2B\	&	.	.	2g/	è
=80-	=80-	=80-	=80-	=80-	=80-	=80-	=80-
1r	.	2c\	qual	1g	el-	2.ee\	la
.	.	2B\	è	.	.	.	.
.	.	.	.	.	.	4dd\	mia
=81-	=81-	=81-	=81-	=81-	=81-	=81-	=81-
00E	el-	2.e\	la	1g	-la	2cc\	vi-
.	.	.	.	.	.	2b\	-ta
.	.	4d\	mia	.	.	.	.
=82-	=82-	=82-	=82-	=82-	=82-	=82-	=82-
.	.	2c\	vi-	1g	ſel	2r	.
!	!	!	!	!	!	!LO:SIC:v:t=custos cc	!
.	.	2B\	-ta	.	.	2b\	&
!	!	!	!	!	!	!LO:LB:g=original	!
=83-	=83-	=83-	=83-	=83-	=83-	=83-	=83-
.	.	2r	.	0g	ve-	2cc\	qual
.	.	2B\	&	.	.	2b\	è
=84-	=84-	=84-	=84-	=84-	=84-	=84-	=84-
.	.	2c\	qual	.	.	2.ee\	la
.	.	2B\	è	.	.	.	.
.	.	.	.	.	.	4dd\	mia
=85-	=85-	=85-	=85-	=85-	=85-	=85-	=85-
0E	-la	2.e\	la	0G	-de	2cc\	vi-
.	.	.	.	.	.	2b\	-ta
.	.	4d\	mia	.	.	.	.
=86-	=86-	=86-	=86-	=86-	=86-	=86-	=86-
.	.	2c\	vi-	.	.	2r	.
.	.	2B\	-ta	.	.	1e/	el-
=87-	=87-	=87-	=87-	=87-	=87-	=87-	=87-
0E	ſel	2r	.	1B	el-	.	.
.	.	2.G#X/	el-	.	.	2e/	-la
=88-	=88-	=88-	=88-	=88-	=88-	=88-	=88-
.	.	.	.	2B/	-la	1e	ſel
.	.	4G#/	-la	.	.	.	.
.	.	2G#/	ſel	2B/	ſe'l	.	.
=89-	=89-	=89-	=89-	=89-	=89-	=89-	=89-
0AA	ve-	0A	ve-	0c	ve-	0e	ve-
=90-	=90-	=90-	=90-	=90-	=90-	=90-	=90-
!	!	!	!	!LO:TX:b:t=Mad. di Luca Marenzio Lib. I. à 4. L	!	!	!
=91-	=91-	=91-	=91-	=91-	=91-	=91-	=91-
!LO:TX:b:t=Mad. di Luca Marenzio Lib. I. à 4. P	!	!LO:TX:b:t=Mad. di Luca Marenzio Lib. I. à 4. G	!	!	!	!	!
00E	-de.	00G#X	-de.	00B	-de.	00e	-de.
=92-	=92-	=92-	=92-	=92-	=92-	=92-	=92-
!	!	!	!	!	!	!LO:TX:b:t=Mad. di Luca Marenzio Lib. I. à 4. C	!
=93-	=93-	=93-	=93-	=93-	=93-	=93-	=93-
=94-	=94-	=94-	=94-	=94-	=94-	=94-	=94-
==	==	==	==	==	==	==	==
*-	*-	*-	*-	*-	*-	*-	*-
!!!system-decoration: [(s1,s2,s3,s4)]
!!!ENC: Marta Opryszak
!!!END: 2022-06-27
!!!ENC: Natalia Wrzos
!!!END: 2022-07-12
!!!YEC: Copyright 2022 Narodowy Instytut Fryderyka Chopina (https://polishscores.org)
!!!YEM: Licence CC BY 4.0 (https://creativecommons.org/licenses/by/4.0)
